packages/core/src/svgs/tronpad.svg

<svg width="24" height="24" viewBox="0 0 24 24" fill="none" xmlns="http://www.w3.org/2000/svg">
<g clip-path="url(#clip0_31_20027)">
<path d="M0 0H24V24H0V0Z" fill="#F0F3FA"/>
<path d="M10.1743 18.4286C10.1314 18.4286 10.0886 18.4201 10.0457 18.4029C9.91716 18.3515 9.85716 18.2229 9.85716 18.0815V11.9101L4.4443 8.35293C4.38248 8.31218 4.3351 8.25295 4.30893 8.18369C4.28276 8.11442 4.27914 8.03866 4.29859 7.96721C4.34144 7.81721 4.48287 7.71436 4.63716 7.71436H19.3672C19.4348 7.71415 19.5011 7.73397 19.5575 7.77135C19.614 7.80872 19.6581 7.86196 19.6843 7.92436C19.7119 7.98555 19.7209 8.05351 19.7103 8.11979C19.6996 8.18607 19.6697 8.24777 19.6243 8.29721L16.9586 11.2115C16.9288 11.2497 16.8915 11.2813 16.849 11.3044C16.8065 11.3275 16.7596 11.3415 16.7114 11.3457C16.6632 11.3498 16.6146 11.3439 16.5688 11.3284C16.5229 11.3129 16.4808 11.2881 16.445 11.2556C16.4091 11.223 16.3804 11.1834 16.3607 11.1392C16.3409 11.0951 16.3304 11.0473 16.3299 10.9989C16.3295 10.9505 16.339 10.9025 16.358 10.858C16.3769 10.8135 16.4048 10.7733 16.44 10.7401L18.57 8.41293H5.79859L10.3672 11.4301C10.4657 11.4944 10.5257 11.6015 10.5257 11.7215V17.1858L12.4286 15.0858V10.4315C12.4286 10.2986 12.5272 10.1744 12.6472 10.1186C12.7672 10.0586 12.9129 10.0758 13.0157 10.1572L15.5829 12.1458C15.6209 12.1752 15.6525 12.2123 15.6755 12.2545C15.6985 12.2968 15.7124 12.3434 15.7165 12.3914C15.7205 12.4393 15.7145 12.4876 15.6989 12.5331C15.6833 12.5786 15.6584 12.6204 15.6257 12.6558L13.1529 15.3558V18.0815C13.1529 18.2744 12.9943 18.4286 12.8014 18.4286C12.6086 18.4286 12.4286 18.2701 12.4286 18.0815V16.1144L10.4314 18.3129C10.3989 18.3489 10.3592 18.3778 10.315 18.3977C10.2707 18.4176 10.2228 18.4282 10.1743 18.4286ZM13.1529 11.1429V14.3186L14.85 12.4629L13.1572 11.1429H13.1529Z" fill="#ED1C24"/>
</g>
<defs>
<clipPath id="clip0_31_20027">
<rect width="24" height="24" fill="white"/>
</clipPath>
</defs>
</svg>

<svg xmlns="http://www.w3.org/2000/svg" width="24" height="24" fill="none" viewBox="0 0 24 24"><g clip-path="url(#a)"><path fill="#F0F3FA" d="M0 0h24v24H0z"/><path fill="#ED1C24" d="M10.174 18.429a.3.3 0 0 1-.128-.026c-.129-.051-.189-.18-.189-.322v-6.17L4.444 8.352a.35.35 0 0 1-.145-.386.35.35 0 0 1 .338-.253h14.73a.34.34 0 0 1 .317.21.34.34 0 0 1-.06.373l-2.665 2.914a.352.352 0 0 1-.63-.212.35.35 0 0 1 .111-.259l2.13-2.327H5.799l4.568 3.017a.35.35 0 0 1 .159.292v5.464l1.903-2.1V10.43c0-.132.098-.257.218-.312a.35.35 0 0 1 .369.038l2.567 1.989a.35.35 0 0 1 .043.51l-2.473 2.7v2.725a.35.35 0 0 1-.352.348c-.192 0-.372-.159-.372-.348v-1.967l-1.998 2.199a.35.35 0 0 1-.257.116m2.979-7.286v3.176l1.697-1.856-1.693-1.32z"/></g><defs><clipPath id="a"><path fill="#fff" d="M0 0h24v24H0z"/></clipPath></defs></svg>
